!!! OTL: Literature29
!!! Chapter: 5
!!! Section: I
!!! Page: 350
!!! Mode: 
!!! Encoder: DJB
**kern
*staff1
*I"Piano
=1-
*clefG2
*k[f#]
*E-:
*M3/4
4r
4r
8r
8B/
=2
4.e/
8f#/
8g/L
8b/J
=3
4.e/
8f#/
8g/L
8b/J
=4
4.b\
8g/
8b\L
8cc\J
=5
2b\
8r
8g/
=6
8b\L
8cc\J
4ee\
4cc\
=7
8b\L
16cc\L
16b\JJ
8g/L
8f#/J
8.e/L
16f#/Jk
=8
!!linebreak:original
8g/L
8f#/J
4e/
8c/L
8B/J
=9
2e/
4r
==
*-
